src/assets/img/dashboard/bitcoin_icon.svg

<svg fill="none" height="32" viewBox="0 0 32 32" width="32" xmlns="http://www.w3.org/2000/svg"><circle cx="16" cy="16" fill="#f2a900" r="16"/><g fill="#fff"><path d="m21.2026 13.3308c-.177-1.8408-1.7661-2.4577-3.7741-2.6337v-2.55452h-1.5538v2.48632c-.408 0-.8258.0077-1.2404.0165v-2.50282h-1.5538l-.0011 2.55232c-.3365.0066-.6675.0132-.9897.0132v-.0077l-2.14329-.0011v1.6605s1.14809-.022 1.12829-.0011c.6301 0 .8346.3651.894.6807v2.9097c.044 0 .1001.0022.1639.011h-.1639l-.0011 4.0765c-.0275.1979-.1441.5135-.5839.5146.0198.0176-1.1294 0-1.1294 0l-.30899 1.8563h2.02339c.3761 0 .7467.0066 1.1096.0088l.0011 2.5831h1.5527v-2.5557c.4256.0088.8379.0121 1.2415.0121l-.0011 2.5436h1.5538v-2.5776c2.6129-.1496 4.4438-.8083 4.6703-3.2628.1837-1.9761-.7455-2.8591-2.229-3.2154.9028-.4574 1.467-1.2657 1.335-2.6128zm-2.1751 5.5225c0 1.93-3.3045 1.7111-4.3591 1.7111v-3.4232c1.0546.0022 4.3591-.3003 4.3591 1.7121zm-.7236-4.8286c0 1.7562-2.758 1.5505-3.6355 1.5516v-3.1032c.8786 0 3.6366-.2793 3.6355 1.5516z"/><path d="m21.2026 13.3308c-.177-1.8408-1.7661-2.4577-3.7741-2.6337v-2.55452h-1.5538v2.48632c-.408 0-.8258.0077-1.2404.0165v-2.50282h-1.5538l-.0011 2.55232c-.3365.0066-.6675.0132-.9897.0132v-.0077l-2.14329-.0011v1.6605s1.14809-.022 1.12829-.0011c.6301 0 .8346.3651.894.6807v2.9097c.044 0 .1001.0022.1639.011h-.1639l-.0011 4.0765c-.0275.1979-.1441.5135-.5839.5146.0198.0176-1.1294 0-1.1294 0l-.30899 1.8563h2.02339c.3761 0 .7467.0066 1.1096.0088l.0011 2.5831h1.5527v-2.5557c.4256.0088.8379.0121 1.2415.0121l-.0011 2.5436h1.5538v-2.5776c2.6129-.1496 4.4438-.8083 4.6703-3.2628.1837-1.9761-.7455-2.8591-2.229-3.2154.9028-.4574 1.467-1.2657 1.335-2.6128zm-2.1751 5.5225c0 1.93-3.3045 1.7111-4.3591 1.7111v-3.4232c1.0546.0022 4.3591-.3003 4.3591 1.7121zm-.7236-4.8286c0 1.7562-2.758 1.5505-3.6355 1.5516v-3.1032c.8786 0 3.6366-.2793 3.6355 1.5516z"/></g></svg>

<svg width="32" height="32" viewBox="0 0 32 32" fill="none" xmlns="http://www.w3.org/2000/svg">
<circle cx="16" cy="16" r="16" fill="#F2A900"/>
<path d="M21.2026 13.3308C21.0256 11.49 19.4365 10.8731 17.4285 10.6971V8.14258H15.8747V10.6289C15.4667 10.6289 15.0489 10.6366 14.6343 10.6454V8.14258H13.0805L13.0794 10.6949C12.7429 10.7015 12.4119 10.7081 12.0897 10.7081V10.7004L9.94641 10.6993V12.3598C9.94641 12.3598 11.0945 12.3378 11.0747 12.3587C11.7048 12.3587 11.9093 12.7238 11.9687 13.0394V15.9491C12.0127 15.9491 12.0688 15.9513 12.1326 15.9601H11.9687L11.9676 20.0366C11.9401 20.2345 11.8235 20.5501 11.3837 20.5512C11.4035 20.5688 10.2543 20.5512 10.2543 20.5512L9.94531 22.4075H11.9687C12.3448 22.4075 12.7154 22.4141 13.0783 22.4163L13.0794 24.9994H14.6321V22.4437C15.0577 22.4525 15.47 22.4558 15.8736 22.4558L15.8725 24.9994H17.4263V22.4218C20.0392 22.2722 21.8701 21.6135 22.0966 19.159C22.2803 17.1829 21.3511 16.2999 19.8676 15.9436C20.7704 15.4862 21.3346 14.6779 21.2026 13.3308V13.3308ZM19.0275 18.8533C19.0275 20.7833 15.723 20.5644 14.6684 20.5644V17.1412C15.723 17.1434 19.0275 16.8409 19.0275 18.8533V18.8533ZM18.3039 14.0247C18.3039 15.7809 15.5459 15.5752 14.6684 15.5763V12.4731C15.547 12.4731 18.305 12.1938 18.3039 14.0247Z" fill="white"/>
<path d="M21.2026 13.3308C21.0256 11.49 19.4365 10.8731 17.4285 10.6971V8.14258H15.8747V10.6289C15.4667 10.6289 15.0489 10.6366 14.6343 10.6454V8.14258H13.0805L13.0794 10.6949C12.7429 10.7015 12.4119 10.7081 12.0897 10.7081V10.7004L9.94641 10.6993V12.3598C9.94641 12.3598 11.0945 12.3378 11.0747 12.3587C11.7048 12.3587 11.9093 12.7238 11.9687 13.0394V15.9491C12.0127 15.9491 12.0688 15.9513 12.1326 15.9601H11.9687L11.9676 20.0366C11.9401 20.2345 11.8235 20.5501 11.3837 20.5512C11.4035 20.5688 10.2543 20.5512 10.2543 20.5512L9.94531 22.4075H11.9687C12.3448 22.4075 12.7154 22.4141 13.0783 22.4163L13.0794 24.9994H14.6321V22.4437C15.0577 22.4525 15.47 22.4558 15.8736 22.4558L15.8725 24.9994H17.4263V22.4218C20.0392 22.2722 21.8701 21.6135 22.0966 19.159C22.2803 17.1829 21.3511 16.2999 19.8676 15.9436C20.7704 15.4862 21.3346 14.6779 21.2026 13.3308V13.3308ZM19.0275 18.8533C19.0275 20.7833 15.723 20.5644 14.6684 20.5644V17.1412C15.723 17.1434 19.0275 16.8409 19.0275 18.8533V18.8533ZM18.3039 14.0247C18.3039 15.7809 15.5459 15.5752 14.6684 15.5763V12.4731C15.547 12.4731 18.305 12.1938 18.3039 14.0247Z" fill="white"/>
</svg>
